X:1240
T:Battle of Prague. JC.008
M:C
L:1/8
Q:120
S:John Clare,Poet,Helpston. (1793-1864)
R:March
O:England
A:Northamptonshire
N:
Z:P Headford
K:D
d2d>dd2e/d/c/B/|{B}A2A>AA2f>d|{c}B2g>e{d}c2e>c|d2d>dd2(fe)|!
e2cd ee(fe)|{e}d2Bc dded|{d}cB/c/ e/d/c/B/|A2^G2|A2A>AA2z:|!
|:A2A>B c>de>f|g2e>gf2fg|afdd ~f>efd|e2A>AA2F>G|!
A2B>cd2f>d|{d}c2g>ef2(3Adf)|afdd fedc|d2d>dd2z:|]


